!!!COM: Mozart, Wolfgang Amadeus
!!!OTL: String Quartet no. 19 in C Major ("Dissonance")
!!!OMD: Adagio
!!!OMV: 1a
!!!SCT1: K<sup>1</sup> 465
!!!SCA: Chronologisch-thematisches Verzeichnis sämtlicher Tonwerke Wolfgang Amade Mozarts (L. von Köchel; 1862, 2/1905, 3/1937, 1947)
!!!SCT2: K<sup>6</sup> 465
!!!YOR: Breitkopf & Härtel Edition
!!!ENC: Frances Bennion
!!!CDT: 1756/1/27/-1791/12/5/
!!!OCY: Österreich
!!!YEC: Copyright (c) 1994, 2000 Center for Computer Assisted Research in the Humanities
!!!YEM: Rights to all derivative editions reserved.
!!!YEM: Refer to licensing agreement for further details.
!!!YEN: United States of America
**kern	**kern	**kern	**kern
*k[]	*k[]	*k[]	*k[]
*C:	*C:	*C:	*C:
*clefC	*clefF	*clefG	*clefG
*M3/4	*M3/4	*M3/4	*M3/4
8C	2r	2.r	2.r
8C	.	.	.
8C	.	.	.
8C	.	.	.
8C	[4A-	.	.
8C	.	.	.
=2	=2	=2	=2
8C	4A-]	2e-	4r
8C	.	.	.
8C	4G	.	[2aa
8C	.	.	.
8C	4F#	4d	.
8C	.	.	.
=3	=3	=3	=3
8BB	4.G	4c#	4aa]
8BB	.	.	.
8BB	.	4.d	4gg
8BB	8A	.	.
8BB	8B	.	4ff#
8BB	8c	8a	.
=4	=4	=4	=4
8BB	8d	8b	4.gg
8BB	8a	8cc	.
8BB	8b	8dd	.
8FF#	4.r	4.r	8aa
8GG	.	.	8bb-
8AA	.	.	8ccc
=5	=5	=5	=5
8BB-	2r	2.r	4ddd-
8BB-	.	.	.
8BB-	.	.	2r
8BB-	.	.	.
8BB-	[4G-	.	.
8BB-	.	.	.
=6	=6	=6	=6
8BB-	4G-]	2d-	4r
8BB-	.	.	.
8BB-	4F	.	[2gg
8BB-	.	.	.
8BB-	4E	4c	.
8BB-	.	.	.
=7	=7	=7	=7
8AA	4.F	4B	4gg]
8AA	.	.	.
8AA	.	4.c	4ff
8AA	8G	.	.
8AA	8A	.	4ee
8AA	8B-	8g	.
=8	=8	=8	=8
8AA	8c	8a	4.ff
8AA	8g	8b-	.
8AA	8a	8cc	.
8EE	4.r	4.r	8gg
8FF	.	.	8aa-
8GG	.	.	8bb-
=9	=9	=9	=9
8AA-	8r	4r	4ccc
8AA-	8E	.	.
8AA-	8F	[2f	2r
8AA-	8G	.	.
8AA-	8A-	.	.
8AA-	8A	.	.
=10	=10	=10	=10
8GG	4.B-	8f]	2.r
8GG	.	8d	.
8GG	.	[2e-	.
8GG	8E-	.	.
8GG	8F	.	.
8GG	8G	.	.
=11	=11	=11	=11
8FF	2.A-	8e-]	8r
8FF	.	16f	8cc
.	.	16e-	.
8FF	.	[2d	8dd
8FF	.	.	8ee-
8FF	.	.	8ff
8FF	.	.	8ff#
=12	=12	=12	=12
2EE-	8G	8d]	4.gg
.	8g	8B	.
.	8f	4c	.
.	8e-	.	8cc
4r	8d	[4cc	8dd
.	8c	.	8ee-
=13	=13	=13	=13
8r	4.d	8cc]	2.ff
8GG	.	8b	.
8AA-	.	8cc	.
8AA	8G	8cc#	.
8BB-	[4g	[4dd	.
8BB	.	.	.
=14	=14	=14	=14
4.C	4g]	8dd]	4ee
.	.	8cc	.
.	4.r	8b-	4ee-
8c	.	8a	.
8B	.	8a-	4dd
8B-	8B-	8g	.
=15	=15	=15	=15
4A	8c	2g	4.cc
.	8d	.	.
2A-	8e-	.	.
.	8e	.	16dd
.	.	.	16cc
.	8f	8f	16b
.	.	.	16cc
.	8f#	8c	16dd
.	.	.	16cc
=16	=16	=16	=16
8G	4g	4d	4b
8f#	.	.	.
4g	4.r	8r	8r
.	.	8b	8dd
4r	.	8cc	8ee-
.	8f#	8e-	8cc
=17	=17	=17	=17
8r	4g	4d	4b
8F#	.	.	.
4G	4.r	8r	8r
.	.	8f	8dd
4r	.	8e-	8cc
.	8F#	8c	8a
=18	=18	=18	=18
8r	4G	4B	4g
8FF#	.	.	.
4GG	8r	8r	8r
.	8F	8B	8d
4r	8E-	8c	8e-
.	8F#	8A	8c
=19	=19	=19	=19
8r	4.G	4.G	4.B
8GG	.	.	.
8BB	.	.	.
8C#	8E	8G	8B
8D	[4F	8G	8B
8BB	.	8G	8B
=20	=20	=20	=20
8r	4.F]	8G	8B
8GG	.	8A#	8c#
8BB	.	4.B	4.d
8C#	8E	.	.
8D	[4F	.	.
8BB	.	8B	8d
=21	=21	=21	=21
8r	4.F]	8B	8d
8GG	.	8c#	8e
8BB	.	4.d	4.f
8C#	8A#	.	.
8D	8B	.	.
8BB	8G	8f	8dd
=22	=22	=22	=22
2.GG	2.d	2.f	4cc
.	.	.	2b
*M4/4	*M4/4	*M4/4	*M4/4
=23	=23	=23	=23
1r	8c	8e	[3..cc
.	8c	8e	.
.	8c	8e	.
.	8c	8e	.
.	8c	8e	.
.	.	.	24cc]
.	8c	8e	8cc
.	8c	8f	8dd
.	8c	8g	8ee
=24	=24	=24	=24
1r	8c	8a	2gg
.	8c	8a	.
.	8c	8a	.
.	8c	8a	.
.	8c	8a	4ff
.	8c	8a	.
.	8c	8a	4r
.	8c	8a	.
=25	=25	=25	=25
1r	8B	8g	[3..dd
.	8B	8g	.
.	8A	8cc	.
.	8A	8cc	.
.	8G	8b	.
.	.	.	24dd]
.	8G	8b	8dd
.	8F	8b	8ee
.	8F	8b	8ff
=26	=26	=26	=26
1r	8E	8b	2aa
.	8E	8b	.
.	8E	8cc	.
.	8E	8b	.
.	8e	8cc	4gg
.	8e	8g	.
.	8B	8dd	4r
.	8B	8g	.
=27	=27	=27	=27
1r	8c	8ee	[3..gg
.	8c	8ee	.
.	8c	8ee	.
.	8c	8ee	.
.	8cc	8ee	.
.	.	.	24gg]
.	8cc	8ee	8gg
.	8b	8dd	8aa
.	8b	8dd	8bb
=28	=28	=28	=28
1r	8a	8cc	8ccc
.	8g#	8b	8ee
.	8a	8cc	4.ff
.	8g#	8b	.
.	8a	8cc	.
.	8a	8cc	8ee
.	8g	8b-	8ff
.	8g	8b-	8gg
=29	=29	=29	=29
1r	8f	8a	8aa
.	8f	8a	8cc#
.	8e	8g	8dd
.	8e	8g	8ee
.	8d	8f	8ff
.	8d	8f	8a
.	8F#	8a	8dd
.	8F#	8a	8cc
=30	=30	=30	=30
1r	2G	4d	8cc
.	.	.	8b
.	.	4B	8a
.	.	.	8g
.	2r	2r	8f#
.	.	.	8g
.	.	.	8f
.	.	.	8d
=31	=31	=31	=31
8r	8E	[3..c	[3..c
8CC	8G	.	.
8EE	8c	.	.
8GG	8G	.	.
4C	4E	.	.
.	.	24c]	24c]
.	.	8c	8c
4r	4r	8B	8d
.	.	8c	8e
=32	=32	=32	=32
8r	3..r	2e	2g
8G	.	.	.
8G	.	.	.
8G	.	.	.
8F#	.	4d	4f
.	24r	.	.
8G	8g	.	.
8D	8g	4r	4r
8BB	8g	.	.
=33	=33	=33	=33
8GG	8f#	[3..B	[3..d
8GG	8g	.	.
8BB	8d	.	.
8D	8B	.	.
4G	4G	.	.
.	.	24B]	24d]
.	.	8B	8d
4r	4r	8c	8e
.	.	8d	8f
=34	=34	=34	=34
8r	3..r	2f	2a
8c	.	.	.
8c	.	.	.
8c	.	.	.
8B	.	4e	4g
.	24r	.	.
8c	8cc	.	.
8G	8cc	4r	4r
8E	8cc	.	.
=35	=35	=35	=35
4C	8b	2gg	2ee
.	8cc	.	.
4r	8g	.	.
.	8e	.	.
2B-	[2c	8ee	8gg
.	.	8cc	8ee
.	.	8dd	8ff
.	.	8ee	8gg
=36	=36	=36	=36
8A	2c]	8ff	8aa
8F	.	8aa	8ccc
8G	.	8gg	8bb-
8A	.	8ff	8aa
2B-	[2c	8ee	8gg
.	.	8cc	8ee
.	.	8dd	8ff
.	.	8ee	8gg
=37	=37	=37	=37
8A	2c]	8ff	8aa
8F	.	8aa	8ccc
8G	.	8gg	8bb-
8A	.	8ff	8aa
2B-	2c	8ee	8gg
.	.	8cc	8ee
.	.	8dd	8ff
.	.	8ee	8gg
=38	=38	=38	=38
4A	8c#	8ee	4aa
.	8e	8g	.
4r	8e	8g	2cc#
.	8e	8g	.
4D	8e	8g	.
.	8d	8f#	.
4r	8d	8f#	4dd
.	8d	8f#	.
=39	=39	=39	=39
4G	8d	8f	4r
.	8dd	8ff	.
4r	8dd	8ff	2bb
.	8dd	8ff	.
4A	8dd	8ff	.
.	8cc	8ee	.
4r	8cc	8ee	4ccc
.	8cc	8ee	.
=40	=40	=40	=40
4F	4f	4dd	8r
.	.	.	8aa
4r	4r	4r	8ff
.	.	.	8dd
4G	4d	4f	8r
.	.	.	8ff
4r	4r	4r	8dd
.	.	.	8b
=41	=41	=41	=41
4E	4c	4g	8r
.	.	.	8cc
4r	4r	4r	8cc
.	.	.	8ee
4C	4e	4cc	8r
.	.	.	8gg
4r	4r	4r	8gg
.	.	.	8ccc
=42	=42	=42	=42
4F	4f	4dd	8r
.	.	.	8aa
4r	4r	4r	8ff
.	.	.	8dd
4G	4d	4f	8r
.	.	.	8ff
4r	4r	4r	8dd
.	.	.	8b
=43	=43	=43	=43
1C	4c	4e	8cc
.	.	.	8g
.	4E	2e	4.g
.	4G	.	.
.	.	.	8g#
.	4B	8f	8a
.	.	8d	8f
=44	=44	=44	=44
[3..CC	2B	2d	2f
.	4c	4c	4e
24CC]	.	.	.
8CC	.	.	.
8DD	4r	4r	4r
8EE	.	.	.
=45	=45	=45	=45
2GG	[3..G	1r	1r
2FF	.	.	.
.	24G]	.	.
.	8G	.	.
.	8A	.	.
.	8B	.	.
=46	=46	=46	=46
8EE	4d	[3..g	1r
8E	.	.	.
8E	8.c	.	.
8E	.	.	.
.	16B	.	.
8E	4c	.	.
.	.	24g]	.
8E	.	8g	.
8D	4f	8a	.
8D	.	8b	.
=47	=47	=47	=47
8C	4.e	4dd	[3..ee
8C	.	.	.
8C	.	2cc	.
8BB	8d	.	.
8AA	4.c	.	.
.	.	.	24ee]
8AA	.	.	8ee
8A	.	4cc	8ff#
8G	8B	.	8gg
=48	=48	=48	=48
8F#	[3..A	[6..cc	4bb
8F#	.	.	.
8F#	.	.	4.aa
.	.	48cc]	.
.	.	16b	.
8E	.	16a	.
.	.	16g	.
8D	.	8f#	.
.	24A]	.	.
8D	8D	8f#	8aa
8D	[4d	8g	8bb
8C	.	8a	8ccc
=49	=49	=49	=49
8BB	3..d_	4b	8ddd
8D	.	.	8bb
8G	.	8dd	4.gg
8B	.	8b	.
8d	.	8g	.
.	24d]	.	.
8c	8d	8f#	8aa
8B	[4dd	8g	8bb
8A	.	8a	8ccc
=50	=50	=50	=50
8G	4dd]	8b	16ddd
.	.	.	16bb
8BB	.	8g	16ddd
.	.	.	16bb
8D	4.d	16dd	4.gg
.	.	16b	.
8G	.	16dd	.
.	.	16b	.
8B	.	8g	.
8c	8d	8f#	8aa
8B	[4dd	8g	8bb
8A	.	8a	8ccc
=51	=51	=51	=51
4G	8dd]	8b	16ddd
.	.	.	16bb
.	8r	8r	16ddd
.	.	.	16bb
2.r	16b	16dd	8gg
.	16a	16cc	.
.	16b	16dd	8r
.	16a	16cc	.
.	8g	8b	16bb
.	.	.	16gg
.	8r	8r	16bb
.	.	.	16gg
.	16g	16b	8ee
.	16f#	16a	.
.	16g	16b	8r
.	16f#	16a	.
=52	=52	=52	=52
2r	8e	8g	16gg
.	.	.	16ee
.	8r	8r	16gg
.	.	.	16ee
.	16e	16g	2b
.	16d#	16f#	.
.	16e	16g	.
.	16d#	16f#	.
2A	2e	2g	.
.	.	.	8.cc#
.	.	.	32b
.	.	.	32cc#
=53	=53	=53	=53
4D	8d	8f#	16dd
.	.	.	16ee
.	8A	8d	16ff#
.	.	.	16gg
4r	8d	8f#	8aa
.	8d	8f#	8r
4D	8r	8r	16cc#
.	.	.	16dd
.	8c#	8g	16ee
.	.	.	16ff#
4r	8c#	8e	8gg
.	8c#	8g	8ee
=54	=54	=54	=54
4D	8d	8f#	16dd
.	.	.	16ee
.	8A	8d	16ff#
.	.	.	16gg
4r	8d	8f#	8aa
.	8d	8f#	8r
4D	8r	8r	16cc#
.	.	.	16dd
.	8c#	8g	16ee
.	.	.	16ff#
4r	8c#	16e	16gg
.	.	16g	16ee
.	8c#	16e	16gg
.	.	16g	16ee
=55	=55	=55	=55
8D	8d	16f#	8dd
.	.	16a	.
8AA	8c#	16g	8ee
.	.	16a	.
8D	8d	16f#	8dd
.	.	16a	.
8AA	8c#	16g	8ee
.	.	16a	.
4D	4d	4f#	4dd
4r	4r	4r	4r
=56	=56	=56	=56
8GG	8B	8d	4.gg 4.b 4.d 4.G
8GG	8G	8B	.
8GG	8B	8d	.
8GG	8B	8d	16bb
.	.	.	16aa
4GG	4B	4d	16gg
.	.	.	16ff#
.	.	.	16ee
.	.	.	16dd
4r	4r	4r	16cc
.	.	.	16b
.	.	.	16a
.	.	.	16g
=57	=57	=57	=57
[2A	[2d [2c	2r	16f#
.	.	.	16a
.	.	.	16g
.	.	.	16b
.	.	.	16a
.	.	.	16cc
.	.	.	16b
.	.	.	16dd
4A]	4d] 4c]	16f#	4cc
.	.	16a	.
.	.	16g	.
.	.	16b	.
4r	4r	16a	4r
.	.	16cc	.
.	.	16b	.
.	.	16dd	.
=58	=58	=58	=58
8D	8f#	8cc	16aa
.	.	.	16gg#
8D	4f#	8a	16ccc
.	.	.	16bb
8D	.	8cc	16aa
.	.	.	16gg#
8D	8f#	8a	16ccc
.	.	.	16bb
4.D	4f#	4cc	16aa
.	.	.	16gg
.	.	.	16ff#
.	.	.	16ee
.	8r	8r	16dd
.	.	.	16cc
8C	8d	8f#	16b
.	.	.	16a
=59	=59	=59	=59
4BB	4d	4g	16g
.	.	.	16b
.	.	.	16a
.	.	.	16cc
2.r	4r	2.r	16b
.	.	.	16dd
.	.	.	16cc
.	.	.	16ee
.	16G	.	4dd
.	16B	.	.
.	16A	.	.
.	16c	.	.
.	16B	.	4r
.	16d	.	.
.	16c	.	.
.	16e	.	.
=60	=60	=60	=60
1r	4d	2r	16b
.	.	.	16dd
.	.	.	16cc
.	.	.	16ee
.	2.r	.	16dd
.	.	.	16ff
.	.	.	16ee
.	.	.	16gg
.	.	16dd	4ff
.	.	16ee	.
.	.	16ff	.
.	.	16ee	.
.	.	16dd	4ff
.	.	16cc	.
.	.	16b	.
.	.	16a	.
=61	=61	=61	=61
16E	2.d	2.g#	8ff
16G#	.	.	.
16F#	.	.	8ee
16A	.	.	.
16G#	.	.	4.ee
16B	.	.	.
16A	.	.	.
16c	.	.	.
4B	.	.	.
.	.	.	8ee
4r	4g#	4dd	8ee
.	.	.	8ee
=62	=62	=62	=62
16AA	2.a	2.cc	4ee
16C	.	.	.
16BB	.	.	.
16D	.	.	.
16C	.	.	4.aa
16E	.	.	.
16D	.	.	.
16F	.	.	.
4E	.	.	.
.	.	.	8aa
4r	[4c	4e	8bb
.	.	.	8ccc
=63	=63	=63	=63
16D	2.c]	2.f#	8ccc
16F#	.	.	.
16E	.	.	8dd
16G	.	.	.
16F#	.	.	4.dd
16A	.	.	.
16G	.	.	.
16B	.	.	.
4A	.	.	.
.	.	.	8dd
4r	4f#	4cc	8dd
.	.	.	8dd
=64	=64	=64	=64
16GG	2.g	2.b	8dd
16BB	.	.	.
16AA	.	.	8gg
16C	.	.	.
16BB	.	.	4.gg
16D	.	.	.
16C	.	.	.
16E	.	.	.
4D	.	.	.
.	.	.	8gg
4r	4f#	4a	8aa
.	.	.	8bb
=65	=65	=65	=65
16E	8e	8g	8bb
16G	.	.	.
16F#	8r	8r	8cc
16A	.	.	.
8G	8e	8g	8r
8r	8g	8b	8cc
16F#	4r	4r	8cc
16A	.	.	.
16G	.	.	8aa
16B	.	.	.
8A	8a	8cc	8r
8r	8f#	8a	8aa
=66	=66	=66	=66
16D#	4r	4r	8aa
16F#	.	.	.
16E	.	.	8b
16G	.	.	.
8F#	8d#	8f#	8r
8r	8f#	8a	8b
16E	4r	4r	8b
16G	.	.	.
16F#	.	.	8gg
16A	.	.	.
8G	8g	8b	8r
8r	8e	8g	8gg
=67	=67	=67	=67
4C	4r	4r	16ee
.	.	.	16dd#
.	.	.	16ff#
.	.	.	16ee
4r	16c	16a	8gg
.	16B	16g#	.
.	16d	16b	8r
.	16c	16a	.
4C	8e	8cc	16cc
.	.	.	16b
.	8r	8r	16dd
.	.	.	16cc
4r	16A	16c	8ee
.	16G#	16B	.
.	16B	16d	8r
.	16A	16c	.
=68	=68	=68	=68
[3..C	[3..c	[3..e	16a
.	.	.	16g#
.	.	.	16b
.	.	.	16a
.	.	.	16cc
.	.	.	16b
.	.	.	16dd
.	.	.	16cc
.	.	.	16ee
.	.	.	16dd
24C]	24c]	24e]	.
8c	4d	8a	16ff#
.	.	.	16ee
8B	.	8g	16gg
.	.	.	16ff#
8A	8c	8f#	16aa
.	.	.	16gg
=69	=69	=69	=69
4G	4B	2.g	16bb
.	.	.	16aa
.	.	.	16gg
.	.	.	16ff#
4BB	8d	.	16aa
.	.	.	16gg
.	8G	.	16ff#
.	.	.	16ee
4C	2A	.	16dd#
.	.	.	16ee
.	.	.	16dd
.	.	.	16cc
4E	.	[4g	16b
.	.	.	16a
.	.	.	16b
.	.	.	16cc
=70	=70	=70	=70
8D	8B	8g]	16dd
.	.	.	16cc
8D	8B	8g	16b
.	.	.	16cc
8D	8B	8g	16dd
.	.	.	16ee
8D	8B	8g	16ff#
.	.	.	16gg
8D	8c	8f#	2a
8D	8c	8f#	.
8D	8c	8f#	.
8D	8c	8f#	.
=71	=71	=71	=71
4GG	4B	4g	4g
4G	2.r	4r	4r
2r	.	4B	4dd
.	.	4B	4dd
=72	=72	=72	=72
4GG	4g	3A#	3cc#
4G	4g	.	.
.	.	12B	12dd
.	.	12G	12b
4D	[2g	12A#	12cc#
.	.	12B	12dd
.	.	12G	12b
4BB	.	12A#	12cc#
.	.	12B	12dd
.	.	12G	12b
=73	=73	=73	=73
4GG	4g]	8.B	8.dd
.	.	16G	16b
2.r	2.r	4B	4dd
.	.	8d#	8r
.	.	8e	4gg
.	.	8c#	.
.	.	8d	[8ff#
=74	=74	=74	=74
4.r	4.r	8B	8ff#]
.	.	8c	4ee
.	.	8A#	.
8G#	8f	8B	8dd
8A	8e	8c#	8cc#
8F#	8e-	8a	8cc
8G	8d	8g	8b
8C#	8A	8g	8ee
=75	=75	=75	=75
2D	2d	4B	4g
.	.	4A	4f#
4B	2r	4dd	2r
4B	.	4dd	.
=76	=76	=76	=76
3A#	1r	3cc#	4gg
.	.	.	4gg
12B	.	12dd	.
12G	.	12b	.
12A#	.	12cc#	4.gg
12B	.	12dd	.
12G	.	12b	.
12A#	.	12cc#	.
12B	.	12dd	.
.	.	.	8bb
12G	.	12b	.
=77	=77	=77	=77
8.B	2.r	8.dd	12ff#
.	.	.	12aa
.	.	.	12gg
16G	.	16b	.
4B	.	4dd	12ff
.	.	.	12ee
.	.	.	12dd
4r	.	4r	12cc
.	.	.	12b
.	.	.	12a
4BB	[4G	4d	12g
.	.	.	12a
.	.	.	12f
=78	=78	=78	=78
4C	4G]	12c	12e
.	.	12ee	12gg
.	.	12dd	12ff#
4C	8.g	12cc	12ee
.	.	12b	12dd
.	.	12a	12cc
.	16e	.	.
4D	4.d	12g	12b
.	.	12cc	12ee
.	.	12b	12dd
4D	.	12a	12cc
.	.	12g	12b
.	8c	.	.
.	.	12f#	12a
=79	=79	=79	=79
4GG	12B	4g	4g
.	12dd	.	.
.	12cc	.	.
4G	12b	2r	2r
.	12a	.	.
.	12g	.	.
4A	12f#	.	.
.	12e	.	.
.	12d	.	.
4D	12c	4f#	[4dd
.	12B	.	.
.	12c	.	.
=80	=80	=80	=80
4r	4B	4g	12dd]
.	.	.	12ddd
.	.	.	12ccc
4G	4r	4d	12bb
.	.	.	12aa
.	.	.	12gg
4A	4r	4r	12ff#
.	.	.	12ee
.	.	.	12dd
4D	[4d	4ff#	12cc
.	.	.	12b
.	.	.	12cc
=81	=81	=81	=81
4r	12d]	4gg	4b
.	12dd	.	.
.	12cc	.	.
4G	12b	4dd	2r
.	12a	.	.
.	12g	.	.
4A	12f#	4r	.
.	12e	.	.
.	12d	.	.
4D	12c	4f#	[4dd
.	12B	.	.
.	12c	.	.
=82	=82	=82	=82
4r	4B	4g	12dd]
.	.	.	12ddd
.	.	.	12ccc
4G	2r	4d	12bb
.	.	.	12aa
.	.	.	12gg
4A	.	4r	12ff#
.	.	.	12ee
.	.	.	12dd
4D	[4d	4ff#	12cc
.	.	.	12b
.	.	.	12cc
=83	=83	=83	=83
4r	12d]	4gg	4b
.	12dd	.	.
.	12cc	.	.
4G	12b	4dd	2r
.	12a	.	.
.	12g	.	.
4A	12f#	2r	.
.	12e	.	.
.	12d	.	.
4D	12c	.	4ff#
.	12B	.	.
.	12A	.	.
=84	=84	=84	=84
8BB	8G	8dd	16gg
.	.	.	16ff#
8BB	8G	8d	16bb
.	.	.	16aa
4BB	4G	4d	16gg
.	.	.	16ff#
.	.	.	16ee
.	.	.	16dd
2r	2r	2r	16cc
.	.	.	16b
.	.	.	16a
.	.	.	16g
.	.	.	16f#
.	.	.	16g
.	.	.	16a
.	.	.	16g
=85	=85	=85	=85
8C	8g	8cc	16ee
.	.	.	16dd#
8C	8E	8c	16gg
.	.	.	16ff#
4C	4E	4c	16ee
.	.	.	16dd
.	.	.	16cc
.	.	.	16b
2r	2r	2r	16a
.	.	.	16g
.	.	.	16f#
.	.	.	16e
.	.	.	16d#
.	.	.	16e
.	.	.	16f#
.	.	.	16e
=86	=86	=86	=86
8D	8f#	8a	16cc
.	.	.	16b
8D	8F#	8A	16ee
.	.	.	16dd
4D	4F#	4A	16cc
.	.	.	16b
.	.	.	16a
.	.	.	16g
2r	2r	2r	16f#
.	.	.	16e
.	.	.	16d
.	.	.	16c
.	.	.	16B
.	.	.	16c
.	.	.	16d
.	.	.	16c
=87	=87	=87	=87
4GG	4D	4G	16B
.	.	.	16c
.	.	.	16d
.	.	.	16e
2.r	2.r	2.r	16f#
.	.	.	16g
.	.	.	16a
.	.	.	16b
.	.	.	16cc
.	.	.	16dd
.	.	.	16ee
.	.	.	16ff#
.	.	.	16gg
.	.	.	16aa
.	.	.	16bb
.	.	.	16ccc
=88	=88	=88	=88
8FF	2B	16G	2ddd
.	.	16g	.
8F	.	16f#	.
.	.	16g	.
8F	.	16a	.
.	.	16g	.
8F	.	16f#	.
.	.	16g	.
8F	2d	16G	2B
.	.	16g	.
8F	.	16f#	.
.	.	16g	.
8F	.	16a	.
.	.	16g	.
8F	.	16f#	.
.	.	16g	.
=89	=89	=89	=89
8EE	2G	16G	2c
.	.	16g	.
8E	.	16f#	.
.	.	16g	.
8E	.	16a	.
.	.	16g	.
8E	.	16f#	.
.	.	16g	.
8CC#	2A	16G	2eee
.	.	16g	.
8C#	.	16f#	.
.	.	16g	.
8C#	.	16a	.
.	.	16g	.
8C#	.	16f#	.
.	.	16g	.
=90	=90	=90	=90
8DD	2d	16B	2ddd
.	.	16b	.
8D	.	16a	.
.	.	16b	.
8D	.	16cc	.
.	.	16b	.
8D	.	16a	.
.	.	16b	.
8DD	4.c	16d	4.ff#
.	.	16a	.
8D	.	16g	.
.	.	16a	.
8D	.	16b	.
.	.	16a	.
8D	16B	16g	16ee
.	16c	16a	16ff#
=91	=91	=91	=91
8GG	4B	[3..g	4gg
8GG	.	.	.
8GG	4d	.	2.r
8GG	.	.	.
8GG	4B	.	.
.	.	24g]	.
8GG	.	8g	.
8GG	4G	8a	.
8GG	.	8b	.
=92	=92	=92	=92
8GG	4F#	4dd	[3..dd
8GG	.	.	.
8GG	4A	4cc	.
8GG	.	.	.
8GG	4F#	2r	.
.	.	.	24dd]
8GG	.	.	8dd
8GG	4D	.	8ee
8GG	.	.	8ff#
=93	=93	=93	=93
8GG	4B	8r	4aa
8GG	.	8f#	.
8GG	4d	8g	4gg
8GG	.	8f#	.
8GG	4B	8g	2r
8GG	.	8g#	.
8GG	4G	8a	.
8GG	.	8b	.
=94	=94	=94	=94
8GG	4F#	1cc	8r
8GG	.	.	8cc#
8GG	4A	.	8dd
8GG	.	.	8cc#
8GG	4F#	.	8dd
8GG	.	.	8dd#
8GG	4D	.	8ee
8GG	.	.	8ff#
=95	=95	=95	=95
8GG	[3..d	8b	4gg
8r	.	8dd	.
8BB	.	8b	2.r
8r	.	8g	.
8D	.	8f#	.
.	24d]	.	.
8r	8d	8d	.
8DD	8e	8c	.
8r	8f#	8A	.
=96	=96	=96	=96
8GG	4a	8B	[3..ddd
8r	.	8d	.
8B	4g	8dd	.
8r	.	8gg	.
8d	2r	8ff#	.
.	.	.	24ddd]
8r	.	8ee	8ccc
8D	.	8dd	8bb
8r	.	8cc	8aa
=97	=97	=97	=97
8GG	[3..d	8a#	4ff#
8r	.	8b	.
8BB	.	8dd	4gg
8r	.	8g	.
8D	.	8f#	2r
.	24d]	.	.
8r	8d	8d	.
8DD	8e	8c	.
8r	8f#	8A	.
=98	=98	=98	=98
8GG	4a	8B	[3..ddd
8r	.	8d	.
8B	4g	8dd	.
8r	.	8gg	.
8d	2r	8ff#	.
.	.	.	24ddd]
8r	.	8ee	8ccc
8D	.	8dd	8bb
8r	.	8cc	8aa
=99	=99	=99	=99
[3..GG	8r	8a#	8ff#
.	8d	8b	8gg
.	8d	8b	8gg
.	8d	8b	8gg
.	4d	4b	4gg
24GG]	.	.	.
8GG	.	.	.
8AA	4r	4r	4r
8BB	.	.	.
=100	=100	=100	=100
4D	8r	8r	8r
.	8e	8A	8g
4.C	8e	8a	8gg
.	8e	8a	8gg
.	4e	4a	4gg
8AA	.	.	.
8BB	4r	4r	4r
8C	.	.	.
=101	=101	=101	=101
4E	8r	8r	8r
.	8f	8B	8g
4.D	8f	8b	8gg
.	8f	8b	8gg
.	4f	4b	4gg
8BB	.	.	.
8C	4r	4r	4r
8D	.	.	.
=102	=102	=102	=102
4F	8r	8r	8r
.	8g	8c	8g
4.E	8g	8cc	8gg
.	8g	8cc	8gg
.	4g	4cc	4gg
8C	.	.	.
8D	4r	4r	4r
8E	.	.	.
=103	=103	=103	=103
[3..G	[3..b-	[3..cc#	[3..ee
24G]	24b-]	24cc#]	24ee]
8F	8a	8dd	8ff
8E	8g	8ee	8gg
8D	8f	8ff	8aa
=104	=104	=104	=104
2A-	[2f	[2d	[3..cc
4G	4f]	4d]	.
.	.	.	24cc]
.	.	.	8b
4r	4r	4r	8ff
.	.	.	8dd
=105	=105	=105	=105
1r	4r	1r	8cc
.	.	.	8b
.	8d	.	8dd
.	8B	.	8b
.	8A	.	8a
.	8G	.	8g
.	8A	.	8a
.	8F	.	8f
=106	=106	=106	=106
1r	8E	1r	8e
.	8D	.	8d
.	8E	.	8e
.	8F	.	8f
.	8F#	.	8f#
.	8G	.	8g
.	8A	.	8a
.	8B	.	8b
=107	=107	=107	=107
8B-	4c	8e	[3..cc
8B-	.	8f	.
8B-	2.r	8e	.
8B-	.	8f	.
8B-	.	4e	.
.	.	.	24cc]
8B-	.	.	8dd
8B-	.	4r	8ee
8B-	.	.	8ff
=108	=108	=108	=108
8B-	[3..c	8ee	2aa
8B-	.	8ff	.
8B-	.	8ee	.
8B-	.	8ff	.
8B-	.	4ee	4gg
.	24c]	.	.
8B-	8d	.	.
8B-	8e	4r	4r
8B-	8f	.	.
=109	=109	=109	=109
8B-	2a	8e	[3..cc
8B-	.	8f	.
8B-	.	8e	.
8B-	.	8f	.
8B-	4g	4e	.
.	.	.	24cc]
8B-	.	.	8dd
8B-	4r	4r	8ee
8B-	.	.	8ff
=110	=110	=110	=110
8B-	[3..c	8ee	2aa
8B-	.	8ff	.
8B-	.	8ee	.
8B-	.	8ff	.
8B-	.	4ee	4gg
.	24c]	.	.
8B-	8d	.	.
8B-	8e	4r	4r
8B-	8f	.	.
=111	=111	=111	=111
8A	2a	8e	[3..cc#
8A	.	8f	.
8A	.	8e	.
8A	.	8f	.
8A	4g	4e	.
.	.	.	24cc#]
8A	.	.	8dd
8A	4r	4r	8ee
8A	.	.	8ff
=112	=112	=112	=112
8A	[3..c#	8ee	2aa
8A	.	8ff	.
8A	.	8ee	.
8A	.	8ff	.
8A	.	4ee	4gg
.	24c#]	.	.
8A	8e	.	.
8A	8g	4r	4r
8A	8a	.	.
=113	=113	=113	=113
8G	2cc	8c#	[3..ee
8G	.	8d	.
8G	.	8c#	.
8G	.	8d	.
8G	4b-	4c#	.
.	.	.	24ee]
8G	.	.	8ff
8G	4r	4r	8gg
8G	.	.	8aa
=114	=114	=114	=114
8G	[3..e	8cc#	2ccc
8G	.	8dd	.
8G	.	8cc#	.
8G	.	8dd	.
8G	.	4cc#	4bb-
.	24e]	.	.
8G	8g	.	.
8G	8b-	4r	4r
8G	8g	.	.
=115	=115	=115	=115
8F	2ee-	8b-	[3..ff
8F	.	8cc	.
8F	.	8b-	.
8F	.	8cc	.
8F	4dd	4b-	.
.	.	.	24ff]
8F	.	.	8bb-
8F	4r	4r	8ddd
8F	.	.	8bb-
=116	=116	=116	=116
8F	[3..c	8a	2fff
8F	.	8b-	.
8F	.	8a	.
8F	.	8b-	.
8F	.	4a	4eee-
.	24c]	.	.
8F	8f	.	.
8F	8a	4r	8r
8F	8f	.	8aa
=117	=117	=117	=117
8F	8a	8r	4ccc
8FF	8cc	8ee-	.
4F	4c	4a	8r
.	.	.	8dd#
8r	8r	8r	4aa
8FF	8d#	8cc	.
4F	4A	4d#	8r
.	.	.	8cc
=118	=118	=118	=118
8r	8r	8r	8dd#
8A	8A	8a	8a
8c	8c	8cc	8cc
8F	8F	8f	8f
8c	8c	8cc	8cc
8E	8E	8e	8e
8c	8c	8cc	8cc
8D#	8D#	8d#	8d#
=119	=119	=119	=119
4E	4E	4e	8e
.	.	.	8g#
4G#	4B	4e 4d	8b
.	.	.	8e
4A	4A	4e 4c	8cc
.	.	.	8a
4F	4A	4a	8aa
.	.	.	8dd#
=120	=120	=120	=120
4E	8B	8g#	8ee
.	8G#	8e	8b
2.r	8B	8dd	8gg#
.	8E	8g#	8ee
.	8c	8ee	8aa
.	8A	8cc	8ee
.	8a	8a	8ccc
.	8d#	8f#	8aa
=121	=121	=121	=121
[3..EE	4e	4g#	4eee
.	2.r	2.r	2.r
24EE]	.	.	.
8FF#	.	.	.
8GG#	.	.	.
8AA	.	.	.
=122	=122	=122	=122
2C	3..r	8r	8r
.	.	8f	8a
.	.	8f	8a
.	.	8e	8a
4BB	.	8e	8a
.	24r	.	.
.	8F#	8d#	8b
4r	8G#	8d#	8b
.	8A	8d#	8cc
=123	=123	=123	=123
[3..EE	8A	8d#	8cc
.	8G#	8e	8b
.	8G#	8e	8b
.	8G#	8e	8b
.	4G#	4e	4b
24EE]	.	.	.
8FF#	.	.	.
8GG#	4r	4r	4r
8AA	.	.	.
=124	=124	=124	=124
2C	3..r	8r	8r
.	.	8f	8a
.	.	8f	8a
.	.	8e	8a
4BB	.	8e	8a
.	24r	.	.
.	8F#	8d#	8b
4r	8G#	8d#	8b
.	8A	8d#	8cc
=125	=125	=125	=125
[3..EE	8A	8d#	8cc
.	8G#	8e	8b
.	8G#	8e	8b
.	8G#	8e	8b
.	4G#	4e	4b
24EE]	.	.	.
8GG#	.	.	.
8BB	4r	4r	4r
8D	.	.	.
=126	=126	=126	=126
4F	8G#	8B	8r
.	4G#	4B	8d
4E	.	.	8g#
.	4G#	4B	8b
8r	.	.	4ee
8GG#	4G#	4B	.
8BB	.	.	4dd
8D	[8G#	[8B	.
=127	=127	=127	=127
4F	8G#]	8B]	8r
.	4G#	4B	8d
4E	.	.	8g#
.	4G#	4B	8b
8r	.	.	4ee
8B	8G#	8e	.
8E	8B	8g#	4dd
8G#	8e	8b	.
=128	=128	=128	=128
4.A	4e	4a	8cc#
.	.	.	8ee
.	8r	8r	4gg
8B-	8e	8cc#	.
4.A	4g	4ee	8r
.	.	.	8cc#
.	8r	8r	4ee
8B-	8e	8g	.
=129	=129	=129	=129
4A	4g	4cc#	8r
.	.	.	8g
8r	2.r	2.r	8b-
8G	.	.	8e
8B-	.	.	8g
8E	.	.	8c#
8G	.	.	8e
8C#	.	.	8A
=130	=130	=130	=130
4D	8f	8dd	8r
.	8f	8dd	8a
2r	8g	8ee	8cc#
.	8g	8ee	8ee
.	8f	8dd	4bb-
.	8f	8dd	.
4AA	8e	8cc#	4aa
.	16d	16b	.
.	16e	16cc#	.
=131	=131	=131	=131
4D	8f	8dd	8r
.	8f	8dd	8a
2r	8g	8ee	8cc#
.	8g	8ee	8ee
.	8f	8dd	4bb-
.	8f	8dd	.
4AA	8e	8cc#	4aa
.	16d	16b	.
.	16e	16cc#	.
=132	=132	=132	=132
8D	8f#	8dd	3..r
8F#	4f#	4a	.
8A	.	.	.
8c	4f#	4a	.
4e-	.	.	.
.	.	.	24r
.	4f#	4a	8cc
4d	.	.	8ff#
.	[8f#	[8a	8aa
=133	=133	=133	=133
8r	8f#]	8a]	4ddd
8F#	4f#	4a	.
8A	.	.	4ccc
8c	4f#	4a	.
4e-	.	.	8r
.	4f#	4a	8cc
4d	.	.	8ff#
.	[8f#	[8a	8aa
=134	=134	=134	=134
8r	8f#]	8a]	4ddd
8F#	4f#	4a	.
8A	.	.	4ccc
8c	4f#	4a	.
4e-	.	.	8r
.	8a	4cc	8ff#
4d	8f#	.	8aa
.	8f#	8a	8ccc
=135	=135	=135	=135
4.G	4g	4g	8bb
.	.	.	8ddd
.	8r	8r	4ff
8A-	8dd	8bb	.
4.G	4b	4dd	8r
.	.	.	8aa-
.	8r	8r	4dd
8A-	8b	8ff	.
=136	=136	=136	=136
4G	4d	4b	8r
.	.	.	8ff
8r	2.r	2.r	8b
8F	.	.	8dd
8A-	.	.	8f
8D	.	.	8a-
8F	.	.	8d
8BB	.	.	8f
=137	=137	=137	=137
4C	8e-	8cc	8r
.	8e-	8cc	8g
2r	8f	8dd	8b
.	8f	8dd	8dd
.	8e-	8cc	4aa-
.	8e-	8cc	.
4GG	8d	8b	4gg
.	16c	16a	.
.	16d	16b	.
=138	=138	=138	=138
4C	8e-	8cc	8r
.	8e-	8cc	8g
2r	8f	8dd	8b
.	8f	8dd	8dd
.	8e-	8cc	4aa-
.	8e-	8cc	.
4GG	8d	8b	4gg
.	16c	16a	.
.	16d	16b	.
=139	=139	=139	=139
4C	8e-	8cc	8r
.	8e-	8g	8cc
4.r	8e-	8g	8ee-
.	8e-	8g	8gg
.	8e	8g	4bb-
8FF	8e	8g	.
8AA-	8f	8a-	4aa-
8C	8f	8a-	.
=140	=140	=140	=140
4E-	8f	8a-	8r
.	8f	8a-	8b-
4D	8f	8a-	8dd
.	8f	8a-	8ff
8r	8d	8f	4aa-
8EE-	8d	8f	.
8GG	8e-	8g	4gg
8BB-	8e-	8g	.
=141	=141	=141	=141
4D	8e-	8g	8r
.	8e-	8g	8a-
4C	8e-	8g	8cc
.	8e-	8g	8ee-
8r	8c#	8e	4gg
8DD	8c#	8e	.
8FF	8d	8f	4ff
8AA-	8d	8f	.
=142	=142	=142	=142
4C	8d	8f	8r
.	8d	8f	8g
4BB	8d	8f	8b
.	8d	8f	8dd
8r	8B	8d	4ff
8C	8B	8d	.
8AA-	8c	8e-	4ee-
8GG	8c	8e-	.
=143	=143	=143	=143
4FF#	4c	4e-	8r
.	.	.	8ccc
8r	8r	8r	4eee-
8FF#	8cc	8ee-	.
4F#	4e-	4a	8r
.	.	.	8aa
8r	8r	8r	4ccc
8FF#	8a	8cc	.
=144	=144	=144	=144
4F#	4c	4e-	8r
.	.	.	8ff#
8r	8r	8r	8aa
8C	8c	8cc	8cc
8E-	8e-	8ee-	8ee-
8AA	8A	8a	8a
8C	8c	8cc	8cc
8FF#	8F#	8f#	8f#
=145	=145	=145	=145
4GG	4G	4g	8g
.	.	.	8G
4BB	4d	4f 4G	8g
.	.	.	8d
4C	4c	4e- 4G	8e-
.	.	.	8c
4AA-	4c	4c	8cc
.	.	.	8f#
=146	=146	=146	=146
4GG	8d	8B	8g
.	8B	8G	8d
2.r	8d	8f	8b
.	8G	8B	8g
.	8e-	8g	8cc
.	8c	8e-	8g
.	8cc	8c	8ee-
.	8f#	8A	8cc
=147	=147	=147	=147
[3..GG	4g	4B	4gg
.	2.r	2.r	2.r
24GG]	.	.	.
8AA	.	.	.
8BB	.	.	.
8C	.	.	.
=148	=148	=148	=148
2E-	3..r	8r	8r
.	.	8a-	8cc
.	.	8a-	8cc
.	.	8g	8cc
4D	.	8g	8cc
.	24r	.	.
.	8A	8f#	8dd
4r	8B	8f#	8dd
.	8c	8f#	8ee-
=149	=149	=149	=149
[3..GG	8c	8f#	8ee-
.	8B	8g	8dd
.	8B	8g	8dd
.	8B	8g	8dd
.	4B	4g	4dd
24GG]	.	.	.
8AA	.	.	.
8BB	4r	4r	4r
8C	.	.	.
=150	=150	=150	=150
2E-	3..r	8r	8r
.	.	8a-	8cc
.	.	8a-	8cc
.	.	8g	8cc
4D	.	8g	8cc
.	24r	.	.
.	8A	8f#	8dd
4r	8B	8f#	8dd
.	8c	8f#	8ee-
=151	=151	=151	=151
[3..GG	8c	8f#	8ee-
.	8B	8g	8dd
.	4r	8b	8dd
.	.	8b	8dd
.	[2G	4b	4dd
24GG]	.	.	.
8BB	.	.	.
8D	.	4r	4r
8F	.	.	.
=152	=152	=152	=152
8G	8G]	[3..g	2r
8F	8B	.	.
8D	8d	.	.
8BB	8f	.	.
4GG	8g	.	[2gg
.	.	24g]	.
.	8f	8b	.
4r	8d	8dd	.
.	8B	8ff	.
=153	=153	=153	=153
2r	4G	8gg	8gg]
.	.	8ff	8bb
.	4r	8dd	8ddd
.	.	8b	8fff
4G	4d 4B	4g	8ggg
.	.	.	8fff
4r	4r	4r	8ddd
.	.	.	8bb
=154	=154	=154	=154
4GG	4f 4G	4b 4d	8ggg
.	.	.	8fff
2.r	2.r	2.r	8ddd
.	.	.	8bb
.	.	.	2r
=155	=155	=155	=155
8c	1r	[3..e	[3..cc
8c	.	.	.
8c	.	.	.
8c	.	.	.
8c	.	.	.
.	.	24e]	24cc]
8c	.	8e	8cc
8c	.	8f	8dd
8c	.	8g	8ee
=156	=156	=156	=156
8c	2e	2b-	2gg
8c	.	.	.
8c	.	.	.
8c	.	.	.
8c	4f	4a	4ff
8c	.	.	.
8c	4r	4r	4r
8c	.	.	.
=157	=157	=157	=157
8c	1r	[3..b	[3..dd
8c	.	.	.
8c	.	.	.
8c	.	.	.
8c	.	.	.
.	.	24b]	24dd]
8c	.	8b	8dd
8c	.	8cc	8ee
8c	.	8dd	8ff
=158	=158	=158	=158
8c	2b	2ff	2aa
8c	.	.	.
8c	.	.	.
8c	.	.	.
8c	4cc	4ee	4gg
8c	.	.	.
8c	4r	4r	4r
8c	.	.	.
=159	=159	=159	=159
4c	8cc	8ee	[3..gg
.	8b	8dd#	.
4r	8cc	8ee	.
.	8b	8dd#	.
8c	4cc	4ee	.
.	.	.	24gg]
8r	.	.	8gg
8B	4r	4r	8aa
8r	.	.	8bb
=160	=160	=160	=160
4A	8a	8cc	8ccc
.	8g#	8b	8ee
4r	8a	8cc	4.ff
.	8g#	8b	.
8A	4a	4cc	.
8r	.	.	8ee
8G	4r	4r	8ff
8r	.	.	8gg
=161	=161	=161	=161
4F	8f	8a	8aa
.	8e	8g	8cc#
8r	8f	8a	8dd
8A	8c#	8g	8ee
4D	8d	8f	8ff
.	8c#	8e	8a
8r	8d	8f	8dd
8d	8f#	8a	8cc
=162	=162	=162	=162
4G	4g	4g	8cc
.	.	.	8b
2.r	4G	4B	8a
.	.	.	8g
.	4A	4c	8f#
.	.	.	8g
.	4B	4d	8f
.	.	.	8d
=163	=163	=163	=163
8r	4c	4c	[3..c
8CC	.	.	.
8EE	4r	2.r	.
8GG	.	.	.
4C	[2C	.	.
.	.	.	24c]
.	.	.	8c
4CC	.	.	8d
.	.	.	8e
=164	=164	=164	=164
8r	8C]	[3..A	2g
8DD	8C#	.	.
8FF	8D	.	.
8AA	8E	.	.
4D	[2F	.	4f
.	.	24A]	.
.	.	8A	.
4DD	.	8B	4r
.	.	8c	.
=165	=165	=165	=165
8r	8F]	2c	[3..d
8GG	8F#	.	.
8BB	8G	.	.
8D	8A	.	.
4G	4B	4B	.
.	.	.	24d]
.	.	.	8d
4GG	[4D	4r	8e
.	.	.	8f
=166	=166	=166	=166
8r	8D]	[3..B	2a
8EE	8D#	.	.
8GG	8E	.	.
8BB	8F#	.	.
4E	[2G	.	4g
.	.	24B]	.
.	.	8B	.
4EE	.	8c	4r
.	.	8d	.
=167	=167	=167	=167
8r	8G]	2d	[3..e
8AA	8G#	.	.
8C	8A	.	.
8E	8B	.	.
4A	4c	8c	.
.	.	.	24e]
.	.	8c	8e
4G	4B-	8d	8f
.	.	8e	8g
=168	=168	=168	=168
4F	4A	8f	8a
.	.	8a	8cc
8G	4r	8g	8b-
8A	.	8f	8a
2B-	[2c	8e	8g
.	.	8c	8e
.	.	8d	8f
.	.	8e	8g
=169	=169	=169	=169
8A	2c]	8f	8a
8F	.	8aa	8ccc
8G	.	8gg	8bb-
8A	.	8ff	8aa
2B-	2c	8ee	8gg
.	.	8cc	8ee
.	.	8dd	8ff
.	.	8ee	8gg
=170	=170	=170	=170
4A	8c#	8ee	4aa
.	8e	8g	.
4r	8e	8g	2cc#
.	8e	8g	.
4D	8e	8g	.
.	8d	8f#	.
4r	8d	8f#	4dd
.	8d	8f#	.
=171	=171	=171	=171
4G	8d	8f	4r
.	8dd	8ff	.
4r	8dd	8ff	2bb
.	8dd	8ff	.
4A	8dd	8ff	.
.	8cc	8ee	.
4r	8cc	8ee	4ccc
.	8cc	8ee	.
=172	=172	=172	=172
2r	8A	8c	16ddd#
.	.	.	16eee
.	8r	8r	16ccc
.	.	.	16aa
.	16a	16cc	2ee
.	16g#	16b	.
.	16a	16cc	.
.	16g#	16b	.
2d	2a	2cc	.
.	.	.	8.ff#
.	.	.	32ee
.	.	.	32ff#
=173	=173	=173	=173
4G	8g	8b	16gg
.	.	.	16aa
.	8d	8g	16bb
.	.	.	16ccc
4r	8g	8b	8ddd
.	8g	8b	8r
4G	8r	8r	16ff#
.	.	.	16gg
.	8f#	8cc	16aa
.	.	.	16bb
4r	8f#	8a	8ccc
.	8f#	8cc	8aa
=174	=174	=174	=174
4G	8g	8b	16gg
.	.	.	16aa
.	8d	8g	16bb
.	.	.	16ccc
4r	8g	8b	8ddd
.	8g	8b	8r
4G	8r	8r	16ff#
.	.	.	16gg
.	8f#	8cc	16aa
.	.	.	16bb
4r	8f#	16a	16ccc
.	.	16cc	16aa
.	8f#	16a	16ccc
.	.	16cc	16aa
=175	=175	=175	=175
8G	8g	16b	8gg
.	.	16dd	.
8D	8f#	16cc	8aa
.	.	16dd	.
8G	8g	16b	8gg
.	.	16dd	.
8D	8f#	16cc	8aa
.	.	16dd	.
4G	4g	4b	4gg
4r	4r	4r	4r
=176	=176	=176	=176
8C	8e	8g	[4gg 4cc 4e
8C	8c	8e	.
8C	8e	8g	16gg]
.	.	.	16ff
8C	8e	8g	16ee
.	.	.	16dd
4C	4e	4g	16cc
.	.	.	16b
.	.	.	16a
.	.	.	16g
4r	4r	4r	16f
.	.	.	16e
.	.	.	16d
.	.	.	16c
=177	=177	=177	=177
[2D	[2G [2F	2r	16B
.	.	.	16d
.	.	.	16c
.	.	.	16e
.	.	.	16d
.	.	.	16f
.	.	.	16e
.	.	.	16g
4D]	4G] 4F]	16B	4f
.	.	16d	.
.	.	16c	.
.	.	16e	.
4r	4r	16d	4r
.	.	16f	.
.	.	16e	.
.	.	16g	.
=178	=178	=178	=178
8G	8d	8f	16ff
.	.	.	16gg
8GG	8B	8d	16aa
.	.	.	16gg
8G	8d	8f	16ff
.	.	.	16ee
8G	8d	8f	16dd
.	.	.	16cc
2G	8d	8f	16b
.	.	.	16cc
.	8B	8d	16dd
.	.	.	16cc
.	8B	8d	16b
.	.	.	16a
.	8B	8d	16g
.	.	.	16f
=179	=179	=179	=179
4C	4c	4c	16e
.	.	.	16g
.	.	.	16f
.	.	.	16a
2.r	4r	4r	16g
.	.	.	16b-
.	.	.	16a
.	.	.	16cc
.	16c	16e	4b-
.	16e	16g	.
.	16d	16f	.
.	16f	16a	.
.	16e	16g	4r
.	16g	16b-	.
.	16f	16a	.
.	16a	16cc	.
=180	=180	=180	=180
1r	4g	4b-	16ee
.	.	.	16gg
.	.	.	16ff
.	.	.	16aa
.	2.r	4r	16gg
.	.	.	16bb-
.	.	.	16aa
.	.	.	16ccc
.	.	16gg	4bb-
.	.	16aa	.
.	.	16bb-	.
.	.	16aa	.
.	.	16gg	4bb-
.	.	16ff	.
.	.	16ee	.
.	.	16dd	.
=181	=181	=181	=181
16AA	2.g	2.cc#	8bb-
16C#	.	.	.
16BB	.	.	8aa
16D	.	.	.
16C#	.	.	2aa
16E	.	.	.
16D	.	.	.
16F	.	.	.
4E	.	.	.
4r	4cc#	4gg	4aa
=182	=182	=182	=182
16D	2.dd	2.ff	8.aa
16F	.	.	.
16E	.	.	.
16G	.	.	16ff
16F	.	.	4.aa
16A	.	.	.
16G	.	.	.
16B-	.	.	.
4A	.	.	.
.	.	.	8ddd
4r	4A	4f	8ccc#
.	.	.	8ddd
=183	=183	=183	=183
16EE	2.G#	2.e	8ddd
16GG#	.	.	.
16FF#	.	.	8ee
16AA	.	.	.
16GG#	.	.	2ee
16BB	.	.	.
16AA	.	.	.
16C	.	.	.
4BB	.	.	.
4r	4g#	4dd	4ee
=184	=184	=184	=184
16AA	2.a	2.cc	8.ee
16C	.	.	.
16BB	.	.	.
16D	.	.	16ff
16C	.	.	4.ee
16E	.	.	.
16D	.	.	.
16F	.	.	.
4E	.	.	.
.	.	.	8aa
4r	4A	4c	8bb
.	.	.	8ccc
=185	=185	=185	=185
16FF	8A	8c	8ccc
16AA	.	.	.
16GG	8r	8r	8dd
16BB-	.	.	.
8AA	8c	8f	8r
8r	8f	8a	8dd
16F	4r	4r	8dd
16A	.	.	.
16G	.	.	8ccc
16B-	.	.	.
8A	8cc	8ff	8r
8r	8a	8cc	8ccc
=186	=186	=186	=186
16GG	4r	4r	8ccc
16BB-	.	.	.
16AA	.	.	8ee
16C	.	.	.
8BB-	8G	8e	8r
8r	8c	8g	8ee
16G	4r	4r	8ee
16B-	.	.	.
16A	.	.	8ccc
16c	.	.	.
8B-	8e	8gg	8r
8r	8g	8ee	8ccc
=187	=187	=187	=187
4A	16a	16ff	8ccc
.	16g	16ee	.
.	16b-	16gg	8r
.	16a	16ff	.
4r	8cc	8aa	16aa
.	.	.	16gg#
.	8r	8r	16bb
.	.	.	16aa
4AA	16A	16f	8ccc
.	16G	16e	.
.	16B-	16g	8r
.	16A	16f	.
4r	8c	8a	16ff
.	.	.	16ee
.	8r	8r	16gg
.	.	.	16ff
=188	=188	=188	=188
4F	16f	16dd	8aa
.	16e	16cc#	.
.	16g	16ee	8r
.	16f	16dd	.
4.r	8a	8ff	16dd
.	.	.	16cc#
.	4r	4r	16ee
.	.	.	16dd
.	.	.	16ff
.	.	.	16gg
8D	8F	8B	16ff
.	.	.	16ee
8E	8G	8c	16dd
.	.	.	16cc
8F	8A	8d	16b
.	.	.	16a
=189	=189	=189	=189
4G	8c	8e	8g
.	8c	8e	16a
.	.	.	16b
4E	8c	8e	16cc
.	.	.	16dd
.	8c	8e	16ee
.	.	.	16ff
4r	8c	8e	16gg
.	.	.	16ff
.	8c	8e	16ee
.	.	.	16ff
4A	8c	8e	16gg
.	.	.	16aa
.	8c	8e	16bb
.	.	.	16ccc
=190	=190	=190	=190
4F	8c	8d	16gg#
.	.	.	16aa
.	8c	8d	16bb
.	.	.	16aa
4D	8c	8d	8ff
.	8c	8d	16ee
.	.	.	16dd
4G	8B	8f	2dd
.	8B	8f	.
4GG	8f	8b	.
.	8f	8b	.
=191	=191	=191	=191
4C	4e	4cc	4cc
4c	2.r	4r	4r
2r	.	4e	4gg
.	.	4e	4gg
=192	=192	=192	=192
4C	4cc	3d#	3ff#
4c	4cc	.	.
.	.	12e	12gg
.	.	12c	12ee
4G	[2cc	12d#	12ff#
.	.	12e	12gg
.	.	12c	12ee
4E	.	12d#	12ff#
.	.	12e	12gg
.	.	12c	12ee
=193	=193	=193	=193
4C	4cc]	8.e	8.gg
.	.	16c	16ee
2.r	2.r	4e	4gg
.	.	8g#	8r
.	.	8a	4ccc
.	.	8f#	.
.	.	8g	[8bb
=194	=194	=194	=194
4.r	4.r	8e	8bb]
.	.	8f	4aa
.	.	8d#	.
8c#	8b-	8e	8gg
8d	8a	8f#	8ff#
8B	8a-	8dd	8ff
8c	8g	8cc	8ee
8F#	8d	8cc	8aa
=195	=195	=195	=195
2G	2g	4e	4cc
.	.	4d	4b
4e	2r	4gg	2r
4e	.	4gg	.
=196	=196	=196	=196
3d#	1r	3ff#	4ccc
.	.	.	4ccc
12e	.	12gg	.
12c	.	12ee	.
12d#	.	12ff#	4.ccc
12e	.	12gg	.
12c	.	12ee	.
12d#	.	12ff#	.
12e	.	12gg	.
.	.	.	8eee
12c	.	12ee	.
=197	=197	=197	=197
8.e	2.r	8.gg	12bb
.	.	.	12ddd
.	.	.	12ccc
16c	.	16ee	.
4e	.	4gg	12bb-
.	.	.	12aa
.	.	.	12gg
4r	.	4r	12ff
.	.	.	12ee
.	.	.	12dd
4E	[4c	4g	12cc
.	.	.	12dd
.	.	.	12b-
=198	=198	=198	=198
4F	4c]	12f	12a
.	.	12aa	12ccc
.	.	12gg	12bb
4F	8.cc	12ff	12aa
.	.	12ee	12gg
.	.	12dd	12ff
.	16a	.	.
4G	4.g	12cc	12ee
.	.	12ff	12aa
.	.	12ee	12gg
4G	.	12dd	12ff
.	.	12cc	12ee
.	8f	.	.
.	.	12b	12dd
=199	=199	=199	=199
4C	12e	4cc	4cc
.	12g	.	.
.	12f	.	.
4C	12e	2r	2r
.	12d	.	.
.	12c	.	.
4D	12B	.	.
.	12A	.	.
.	12G	.	.
4GG	12F	4B	[4g
.	12E	.	.
.	12F	.	.
=200	=200	=200	=200
4r	4E	4c	12g]
.	.	.	12gg
.	.	.	12ff
4C	2r	4G	12ee
.	.	.	12dd
.	.	.	12cc
4D	.	4r	12b
.	.	.	12a
.	.	.	12g
4GG	4b	[4g	12f
.	.	.	12e
.	.	.	12f
=201	=201	=201	=201
4r	4cc	12g]	4e
.	.	12gg	.
.	.	12ff	.
4C	4g	12ee	2r
.	.	12dd	.
.	.	12cc	.
4D	4r	12b	.
.	.	12a	.
.	.	12g	.
4GG	4B	12f	[4gg
.	.	12e	.
.	.	12f	.
=202	=202	=202	=202
4r	4c	4e	12gg]
.	.	.	12ggg
.	.	.	12fff
4C	4G	2r	12eee
.	.	.	12ddd
.	.	.	12ccc
4D	4r	.	12bb
.	.	.	12aa
.	.	.	12gg
4GG	[4G	4bb	12ff
.	.	.	12ee
.	.	.	12ff
=203	=203	=203	=203
4r	12G]	4ccc	4ee
.	12g	.	.
.	12f	.	.
4C	12e	4gg	2r
.	12d	.	.
.	12c	.	.
4D	12B	2r	.
.	12A	.	.
.	12G	.	.
4GG	12F	.	4bb
.	12E	.	.
.	12D	.	.
=204	=204	=204	=204
8EE	8C	8g	16ccc
.	.	.	16bb
8E	8c	8G	16aa
.	.	.	16gg
4E	4c	4G	16ff
.	.	.	16ee
.	.	.	16dd
.	.	.	16cc
2r	2r	2r	16b
.	.	.	16cc
.	.	.	16dd
.	.	.	16cc
.	.	.	16b
.	.	.	16cc
.	.	.	16ee
.	.	.	16cc
=205	=205	=205	=205
8FF	8C	8a	16aa
.	.	.	16gg
8F	8A	8c	16ff
.	.	.	16ee
4F	4A	4c	16dd
.	.	.	16cc
.	.	.	16b
.	.	.	16a
2r	2r	2r	16g#
.	.	.	16a
.	.	.	16b
.	.	.	16a
.	.	.	16g#
.	.	.	16a
.	.	.	16cc
.	.	.	16a
=206	=206	=206	=206
8GG	8D	8b	16ff
.	.	.	16ee
8G	8B	8d	16dd
.	.	.	16cc
4G	4B	4d	16b
.	.	.	16a
.	.	.	16g
.	.	.	16f
2r	2r	2r	16e
.	.	.	16f
.	.	.	16g
.	.	.	16f
.	.	.	16e
.	.	.	16f
.	.	.	16a
.	.	.	16f
=207	=207	=207	=207
4C	4G	4c	16e
.	.	.	16g
.	.	.	16f
.	.	.	16e
2.r	2.r	2.r	16f
.	.	.	16g
.	.	.	16a
.	.	.	16b
.	.	.	16cc
.	.	.	16b
.	.	.	16cc
.	.	.	16dd
.	.	.	16ee
.	.	.	16ff
.	.	.	16gg
.	.	.	16aa
=208	=208	=208	=208
8EE	8c#	16G	2bb-
.	.	16g	.
8E	8c#	16f#	.
.	.	16g	.
8E	8c#	16a	.
.	.	16g	.
8E	8c#	16f#	.
.	.	16g	.
8E	8g	16g	2c#
.	.	16b-	.
8E	8g	16a	.
.	.	16b-	.
8E	8g	16cc	.
.	.	16b-	.
8E	8g	16a	.
.	.	16b-	.
=209	=209	=209	=209
8FF	8f	16d	2d
.	.	16a	.
8F	8f	16g	.
.	.	16a	.
8F	8f	16b-	.
.	.	16a	.
8F	8f	16g	.
.	.	16a	.
8FF#	8e-	16a	2aa
.	.	16cc	.
8F#	8e-	16b	.
.	.	16cc	.
8F#	8e-	16dd	.
.	.	16cc	.
8F#	8e-	16b	.
.	.	16cc	.
=210	=210	=210	=210
8GG	8e	16g	2gg
.	.	16cc	.
8G	8e	16b	.
.	.	16cc	.
8G	8e	16dd	.
.	.	16cc	.
8G	8e	16b	.
.	.	16cc	.
8GG	8f	16G	4.b
.	.	16d	.
8G	8f	16c	.
.	.	16d	.
8G	8f	16e	.
.	.	16d	.
8G	8f	16c	16a
.	.	16d	16b
=211	=211	=211	=211
8CC	4e	[3..c	4cc
8C	.	.	.
8C	4G	.	2.r
8C	.	.	.
8C	4E	.	.
.	.	24c]	.
8C	.	8c	.
8C	4C	8d	.
8C	.	8e	.
=212	=212	=212	=212
8C	4B	4g	[3..g
8C	.	.	.
8C	4d	4f	.
8C	.	.	.
8C	4B	2r	.
.	.	.	24g]
8C	.	.	8g
8C	4G	.	8a
8C	.	.	8b
=213	=213	=213	=213
8C	4e	8r	4dd
8C	.	8b	.
8C	4g	8cc	4cc
8C	.	8b	.
8C	4e	8cc	2r
8C	.	8cc#	.
8C	4c	8dd	.
8C	.	8ee	.
=214	=214	=214	=214
8C	4b	1ff	8r
8C	.	.	8ff#
8C	4dd	.	8gg
8C	.	.	8ff#
8C	4b	.	8gg
8C	.	.	8gg#
8C	4g	.	8aa
8C	.	.	8bb
=215	=215	=215	=215
8C	[3..G	8ee	4ccc
8r	.	8gg	.
8E	.	8ee	2.r
8r	.	8cc	.
8G	.	8b	.
.	24G]	.	.
8r	8G	8g	.
8GG	8A	8f	.
8r	8B	8d	.
=216	=216	=216	=216
8C	4d	8e	[3..gg
8r	.	4g	.
8E	4c	.	.
8r	.	8cc	.
8G	2r	8b	.
.	.	.	24gg]
8r	.	8a	8ff
8GG	.	8g	8ee
8r	.	8f	8dd
=217	=217	=217	=217
8C	[3..g	8d#	4b
8r	.	8e	.
8e	.	8g	4cc
8r	.	8cc	.
8g	.	8b	2r
.	24g]	.	.
8r	8g	8g	.
8G	8a	8f	.
8r	8b	8d	.
=218	=218	=218	=218
8c	4dd	8e	[3..ggg
8r	.	8g	.
8e	4cc	8gg	.
8r	.	8ccc	.
8g	2r	8bb	.
.	.	.	24ggg]
8r	.	8aa	8fff
8G	.	8gg	8eee
8r	.	8ff	8ddd
=219	=219	=219	=219
[3..C	8r	8dd#	8bb
.	8g	8ee	8ccc
.	8g	8ee	8ccc
.	8g	8ee	8ccc
.	4g	4ee	4ccc
24C]	.	.	.
8C	.	.	.
8D	4r	4r	4r
8E	.	.	.
=220	=220	=220	=220
4G	8r	8r	8r
.	8a	8d	8cc
4.F	8a	8dd	8ccc
.	8a	8dd	8ccc
.	4a	4dd	4ccc
8D	.	.	.
8E	4r	4r	4r
8F	.	.	.
=221	=221	=221	=221
4A	8r	8r	8r
.	8b-	8e	8cc
4.G	8b-	8ee	8ccc
.	8b-	8ee	8ccc
.	4b-	4ee	4ccc
8E	.	.	.
8F	4r	4r	4r
8G	.	.	.
=222	=222	=222	=222
4B-	8r	8r	8r
.	8cc	8f	8cc
4.A	8cc	8ff	8ccc
.	8cc	8ff	8ccc
.	4cc	4ff	4ccc
8F	.	.	.
8G	4r	4r	4r
8A	.	.	.
=223	=223	=223	=223
[3..c	[3..ee-	[3..ff#	[3..aa
24c]	24ee-]	24ff#]	24aa]
8B-	8dd	8gg	8bb-
8A	8cc	8aa	8ccc
8G	8b-	8bb-	8ddd
=224	=224	=224	=224
2d-	[2b-	[2g	[3..ff
4c	4b-]	4g]	.
.	.	.	24ff]
.	.	.	8ee
4r	4r	4r	8bb-
.	.	.	8gg
=225	=225	=225	=225
1r	4r	1r	8ff
.	.	.	8ee
.	8g	.	8gg
.	8e	.	8ee
.	8d	.	8dd
.	8c	.	8cc
.	8d	.	8dd
.	8B-	.	8b-
=226	=226	=226	=226
1r	8A	1r	8a
.	8G	.	8g
.	8F#	.	8f#
.	8G	.	8g
.	8A-	.	8a-
.	8A	.	8a
.	8B-	.	8b-
.	8B	.	8b
=227	=227	=227	=227
8B-	4c	8e	[3..cc
8B-	.	8f	.
8B-	2.r	8e	.
8B-	.	8f	.
8B-	.	4e	.
.	.	.	24cc]
8B-	.	.	8cc#
8B-	.	4r	8dd
8B-	.	.	8ee
=228	=228	=228	=228
8A	[3..c	8r	4gg
8A	.	8cc	.
8A	.	8a	4ff
8A	.	8f	.
8B-	.	4e	2r
.	24c]	.	.
8B-	8c#	.	.
8B-	8d	4g	.
8B-	8e	.	.
=229	=229	=229	=229
8A	4g	8r	[3..cc
8A	.	8cc	.
8A	4f	8a	.
8A	.	8f	.
8B-	[2c	4e	.
.	.	.	24cc]
8B-	.	.	8cc#
8B-	.	4g	8dd
8B-	.	.	8ee
=230	=230	=230	=230
8A	8c]	8r	8gg
8A	8c#	8f	8ff
8B-	8d	8a	4.cc
8B-	8e	8g	.
8A	8g	8e	.
8A	8f	8f	8cc#
8B-	[4c	8a	8dd
8B-	.	8g	8ee
=231	=231	=231	=231
8A	8c]	8e	8gg
8A	8c#	8f	8ff
8B-	8d	8a	4.cc
8B-	8e	8g	.
8A	8g	8e	.
8A	8f	8f	8cc#
8B-	[4c	8a	8dd
8B-	.	8g	8ee
=232	=232	=232	=232
8A	8c]	8e	8gg
8A	8c	8f	8ff
8A	8g	8r	8r
8A	8f	8c	8cc
8E	8r	8cc	8aa
8E	8c	8b-	8gg
8E	8a	8r	8r
8E	8g	8b-	8cc
=233	=233	=233	=233
8F	8r	8gg	8bb-
8F	8c	8ff	8aa
8F	8b-	8r	8r
8F	8a	8cc	8aa
8F#	8r	8dd#	8bb
8F#	8a	8ee	8ccc
8F#	8b	8r	8r
8F#	8cc	8ee	8ccc
=234	=234	=234	=234
8G	8r	8ee	8ccc
8G	8cc	8e	8gg
8G	8cc	8r	8r
8G	8g	8cc	8ee
8G	8r	8ee	8gg
8G	8B	8dd	8ff
8G	8g	8r	8r
8G	8f	8b	8dd
=235	=235	=235	=235
8C	4e	8cc	4cc
8E	.	8g	.
8G	4.r	8cc	4.r
8c	.	8ee	.
4e	.	4gg	.
.	8e	.	8gg
4d	8g	4ff	8bb
.	8b	.	8ddd
=236	=236	=236	=236
8r	8dd	16G	4.fff
.	.	16g	.
8G	8b	16g	.
.	.	16g	.
8d	4.g	16g	.
.	.	16g	.
8B	.	16g	8ddd
.	.	16g	.
8r	.	16c	4.eee
.	.	16cc	.
8C	8e	16cc	.
.	.	16cc	.
8G	4c	16cc	.
.	.	16cc	.
8E	.	16cc	8ccc
.	.	16cc	.
=237	=237	=237	=237
8F	16f	16cc	4.aa
.	16f	16cc	.
8E	16f	16cc	.
.	16f	16cc	.
8F	16a	16ff	.
.	16a	16ff	.
8D	16a	16ff	8ddd
.	16a	16ff	.
8G	16g	16ee	4ccc
.	16g	16ee	.
8F	16g	16ee	.
.	16g	16ee	.
8G	16f	16dd	8bb
.	16f	16dd	.
8GG	16f	16dd	16aa
.	16f	16dd	16bb
=238	=238	=238	=238
8C	4e	8cc	4ccc
8E	.	8g	.
8G	4.r	8cc	4.r
8c	.	8ee	.
4e	.	4gg	.
.	8e	.	8gg
4d	8g	4ff	8bb
.	8b	.	8ddd
=239	=239	=239	=239
8r	8dd	16G	8fff
.	.	16g	.
8G	8b	16g	4fff
.	.	16g	.
8d	4.g	16g	.
.	.	16g	.
8B	.	16g	8ddd
.	.	16g	.
8r	.	16c	8eee
.	.	16cc	.
8C	8e	16cc	4eee
.	.	16cc	.
8G	4c	16cc	.
.	.	16cc	.
8E	.	16cc	8ccc
.	.	16cc	.
=240	=240	=240	=240
8F	16f	16cc	8aa
.	16f	16cc	.
8E	16f	16cc	4aa
.	16f	16cc	.
8F	16a	16ff	.
.	16a	16ff	.
8D	16a	16ff	8ddd
.	16a	16ff	.
8G	16g	16ee	4ccc
.	16g	16ee	.
8F	16g	16ee	.
.	16g	16ee	.
8G	16f	16dd	8bb
.	16f	16dd	.
8GG	16f	16dd	16aa
.	16f	16dd	16bb
=241	=241	=241	=241
8C	2e	2cc	4ccc
8C	.	.	.
8C	.	.	2.r
8C	.	.	.
8C	2f	2aa	.
8C	.	.	.
8C	.	.	.
8C	.	.	.
=242	=242	=242	=242
8C	2e	2gg	[3..g
8C	.	.	.
8C	.	.	.
8C	.	.	.
8C	2d	2ff	.
.	.	.	24g]
8C	.	.	8g#
8C	.	.	8a
8C	.	.	8b
=243	=243	=243	=243
8C	2c	2ee	8dd
8C	.	.	8cc
8C	.	.	2.r
8C	.	.	.
8C	2a	2ff	.
8C	.	.	.
8C	.	.	.
8C	.	.	.
=244	=244	=244	=244
8C	2g	2ee	[3..gg
8C	.	.	.
8C	.	.	.
8C	.	.	.
8C	2f	2dd	.
.	.	.	24gg]
8C	.	.	8gg#
8C	.	.	8aa
8C	.	.	8bb
=245	=245	=245	=245
4C	4e	4cc	8ddd
.	.	.	8ccc
4GG	4G	4e	4ccc
4EE	4G	4e	4ccc
4GG	4G	4e	4ccc
=246	=246	=246	=246
4CC	4G	4e	4ccc
2.r	2.r	2.r	2.r
==	==	==	==
*-	*-	*-	*-
!!!RWG1: This file contains only pitch and duration data.
!!!RWG2: Transposing instruments are not transposed.
!!!RWG3: Spines may have incompatible meters.
!!!RWG4: Durations of rests and tied notes may be interpreted.
!!!RWG: Key is interpreted using the Humdrum key tool.
!!!AFT: stage1
!!!END: 1997/04/15
!!!KEY: 3934392157
!!!EMD: Converted from MuseData to Humdrum Dec 16, 2000, by Andreas Kornstaedt using muse2kern.
!!!EMD: Manual editing by Craig Sapp, Nov 2001
